X:228
T:Albquerque Turkey
C:David Grisman
N:From the album "Mondo Mando" TablEdited by Mike Stangeland
L:1/8
Q:1/4=244
M:4/4
K:G
z8 |: "G"DG2D B,G, DG | zD B,G, DG2G, | "D7"CF2C A,G, CF | zC A,G, CF DG, | "G"DG2D B,G, DG | 
zD B,G, DG2G, | "D7"CF2C A,F DB, |1 G,2 B,2 C2 ^C2 :|2 G,8 | "C"cB Ad z^d ze | 
z8 | "G"A^A BA =AG ED | EG z6 | "A"^CE DE GB AB | ^cf ef gf e2 | DE F^G ^Ac de | 
f^c ^d=f d'4 :|3 G,6 bc' | d'4 b2 ab | bd' z2 e=f ^f=f | "D7"ed cB cB Ae | zd z2 A^A BA | 
"G"AG EG2G, B,E | DB, A,B, DE DE | "D7"FD EF ED GE | "G"DA ED BE DA | ED GE DA ED | 
BG DA ED GE | "D7"DF FD AD D^A | zA z2 EF ED | "G"GF GA Bd B2 | de z2 e=f ^f=f | 
"D7"ed Bd BD GB | "G"AG EG ED Gc | "C"dc de e4 | dA cd2e ee | "G"g2 ag bg ag | 
bg ag bg ag | "A"b4 a2 ga | zb zz e=f ^f=f | "D+"f=f ed cB cB | A^G FD ^AG FD | 
"G"G4 EE DE | zG z6 | "D7"FF FF EE DE | zG z6 | "G"GG GG EE DE | zG z2 FE FE | 
"D7"DE DC B,G, ^A,B, | "G"^A,B, A,B, DC A,B, | G,8 | 
 

